symbolic/22x22/apps/bareftp.svg

<svg xmlns="http://www.w3.org/2000/svg" width="22" height="22" version="1.1">
 <path style="opacity:0.2" d="M 7.3626653,1.5028637 C 6.565737,1.5356612 5.7646071,1.8470628 5.1935544,2.6229814 L 2.4618265,6.3388029 c -0.650571,0.8824009 -0.5659138,2.1780915 -0.044107,2.94629 0.3679196,0.541649 0.9385505,0.8484241 1.5574864,1.0263681 l 0,4.012698 c -2e-7,1.919907 1.5432521,3.175782 3.2776809,3.175782 l 0.4685202,0 c 0.7090143,0 1.360178,-0.254037 1.917207,-0.634766 l 2.580782,3.51172 c 0.571052,0.775918 1.372185,1.08732 2.169111,1.120118 3.16e-4,1.3e-5 6.51e-4,-1.3e-5 10e-4,0 0.88407,0.03659 1.7833,-0.258738 2.417093,-1.120118 l 2.731728,-3.715821 0.001,-0.0019 c 0.649136,-0.882362 0.56458,-2.176658 0.04313,-2.944337 -0.367921,-0.541649 -0.938552,-0.848424 -1.557487,-1.026368 l 0,-4.0126976 C 18.02493,6.7558086 16.481677,5.4999355 14.747249,5.4999355 l -0.468521,0 c -0.709014,0 -1.360177,0.2540366 -1.917207,0.6347658 L 9.780738,2.6229814 C 9.146946,1.7616076 8.2477052,1.4662718 7.3636453,1.5028637 l -0.001,0 z"/>
 <path style="fill:#4f4f4f" d="M 7.3626653,1.0029218 C 6.565737,1.0357193 5.7646071,1.3471209 5.1935544,2.1230395 L 2.4618265,5.8388612 C 1.8112555,6.7212621 1.8959127,8.0169526 2.417719,8.7851515 2.7856386,9.3267999 3.3562695,9.6335749 3.9752054,9.8115199 l 0,4.0126971 c -2e-7,1.919908 1.5432521,3.175782 3.2776809,3.175782 l 0.4685202,0 c 0.7090143,0 1.3601775,-0.254036 1.9172075,-0.634766 l 2.580782,3.51172 c 0.571052,0.775918 1.372185,1.08732 2.169111,1.120118 3.16e-4,1.3e-5 6.5e-4,-1.3e-5 10e-4,0 0.88407,0.03659 1.7833,-0.258738 2.417093,-1.120118 l 2.731728,-3.715821 0.001,-0.002 c 0.649136,-0.882362 0.56458,-2.176658 0.04313,-2.944337 -0.36792,-0.541649 -0.938551,-0.848424 -1.557486,-1.026368 l 0,-4.0126973 C 18.02493,6.2558669 16.481677,4.9999938 14.747249,4.9999938 l -0.468521,0 c -0.709014,0 -1.360177,0.2540366 -1.917207,0.6347658 L 9.780738,2.1230395 C 9.146946,1.2616657 8.2477052,0.9663298 7.3636453,1.0029218 l -0.001,0 z"/>
 <path style="opacity:0.2" d="M 7.4590074,3.5008198 C 7.1967177,3.5115813 6.9591436,3.6262441 6.8276871,3.80552 L 4.1056314,7.5225869 c -0.2997609,0.4080812 0.074199,0.977945 0.6723148,0.977352 l 1.222555,0 0,5.8239411 c 0,0.651591 0.6200233,1.17606 1.2658311,1.17606 l 0.4673407,0 c 0.6458073,0 1.277041,-0.524565 1.265831,-1.17606 l 0,-5.8239411 1.222555,0 c 0.598116,6e-4 0.972075,-0.5692708 0.672315,-0.977352 L 8.1723182,3.80552 C 8.0262111,3.6062164 7.750555,3.4884662 7.4590074,3.5008198 Z"/>
 <path style="fill:#ffd42b" d="M 7.4590074,3.0008778 C 7.1967177,3.0116393 6.9591436,3.1263022 6.8276871,3.3055781 L 4.1056314,7.0226452 c -0.2997609,0.4080812 0.074199,0.9779449 0.6723148,0.9773519 l 1.222555,0 0,5.8239409 c 0,0.651592 0.6200233,1.17606 1.2658311,1.17606 l 0.4673407,0 c 0.6458073,0 1.277041,-0.524565 1.265831,-1.17606 l 0,-5.8239409 1.222555,0 c 0.598116,6e-4 0.972075,-0.5692707 0.672315,-0.9773519 L 8.1723182,3.3055781 C 8.0262111,3.1062744 7.750555,2.9885242 7.4590074,3.0008778 Z"/>
 <path style="opacity:0.2" d="m 14.266335,7.4999329 c -0.645807,0 -1.277041,0.5245647 -1.265831,1.1760605 l 0,5.8239426 -1.222554,0 c -0.598116,-6e-4 -0.972077,0.569271 -0.672315,0.977353 l 2.722056,3.717067 c 0.131456,0.179276 0.36903,0.293939 0.63132,0.304701 0.291547,0.01235 0.567204,-0.105397 0.71331,-0.304701 l 2.722055,-3.717067 c 0.299762,-0.408082 -0.0742,-0.977946 -0.672314,-0.977353 l -1.222555,0 0,-5.8239426 c 0,-0.6515923 -0.620024,-1.1760605 -1.265831,-1.1760605 z"/>
 <path style="fill:#71d716" d="m 14.266335,6.9999912 c -0.645807,0 -1.277041,0.5245647 -1.265831,1.1760605 l 0,5.8239423 -1.222554,0 c -0.598116,-6e-4 -0.972077,0.569272 -0.672315,0.977353 l 2.722056,3.717067 c 0.131456,0.179277 0.36903,0.29394 0.63132,0.304701 0.291547,0.01236 0.567204,-0.105396 0.71331,-0.304701 l 2.722055,-3.717067 c 0.299762,-0.408081 -0.0742,-0.977946 -0.672314,-0.977353 l -1.222555,0 0,-5.8239423 c 0,-0.6515923 -0.620024,-1.1760605 -1.265831,-1.1760605 z"/>
 <path style="opacity:0.1;fill:#ffffff" d="M 7.3623068,1.0029218 C 6.5653785,1.0357193 5.7644136,1.3471208 5.1933609,2.1230395 L 2.4619142,5.8388612 C 2.0916249,6.3411029 1.9664597,6.9757112 2.0175781,7.5722604 2.0570816,7.1347913 2.1942349,6.7019281 2.4619142,6.3388614 L 5.1933609,2.6230397 C 5.7644136,1.847121 6.5653785,1.5357195 7.3623068,1.502922 l 0.001,0 C 8.2473672,1.46633 9.146508,1.7616659 9.7803,2.6230397 l 2.581056,3.5117201 C 12.918363,5.7540306 13.569312,5.499994 14.278326,5.499994 l 0.46875,0 c 1.734428,0 3.27828,1.2558696 3.278322,3.1757824 l 0,-0.5000002 C 18.025356,6.2558639 16.481504,4.9999938 14.747076,4.9999938 l -0.46875,0 c -0.709014,0 -1.359963,0.2540366 -1.916993,0.6347658 L 9.780277,2.1230395 C 9.146484,1.2616657 8.2473437,0.9663298 7.3632833,1.0029218 l -0.001,0 z m 10.6630912,11.1855522 0,0.5 c 0.618935,0.177944 1.188722,0.484719 1.556641,1.026368 0.224564,0.330603 0.361586,0.759961 0.400391,1.210937 0.05628,-0.625304 -0.09349,-1.259123 -0.400391,-1.710937 -0.367919,-0.54165 -0.937706,-0.848424 -1.556641,-1.026368 z"/>
</svg>

<svg xmlns="http://www.w3.org/2000/svg" width="22" height="22"><path style="opacity:.2" d="M7.363 1.503c-.797.033-1.598.344-2.17 1.12L2.463 6.339c-.65.882-.566 2.178-.044 2.946.368.542.938.849 1.557 1.026v4.013c0 1.92 1.543 3.176 3.278 3.176h.468c.71 0 1.36-.254 1.918-.635l2.58 3.512c.571.776 1.373 1.087 2.17 1.12.885.037 1.784-.259 2.418-1.12l2.731-3.716.001-.002c.65-.882.565-2.176.043-2.944-.367-.542-.938-.849-1.557-1.027V8.676c0-1.92-1.543-3.176-3.278-3.176h-.468c-.71 0-1.36.254-1.917.635L9.78 2.623c-.634-.861-1.533-1.157-2.417-1.12h-.001z"/><path style="fill:#4f4f4f" d="M7.363 1.003c-.797.033-1.598.344-2.17 1.12L2.463 5.839c-.65.882-.566 2.178-.044 2.946.368.542.938.849 1.557 1.027v4.012c0 1.92 1.543 3.176 3.278 3.176h.468c.71 0 1.36-.254 1.918-.635l2.58 3.512c.571.776 1.373 1.087 2.17 1.12.885.037 1.784-.259 2.418-1.12l2.731-3.716.001-.002c.65-.882.565-2.177.043-2.944-.367-.542-.938-.849-1.557-1.027V8.176c0-1.92-1.543-3.176-3.278-3.176h-.468c-.71 0-1.36.254-1.917.635L9.78 2.123c-.634-.861-1.533-1.157-2.417-1.12h-.001z"/><path style="opacity:.2" d="M7.459 3.5c-.262.012-.5.126-.631.306L4.106 7.523c-.3.408.074.978.672.977H6v5.824c0 .651.62 1.176 1.265 1.176h.468c.645 0 1.277-.525 1.266-1.176V8.5h1.222c.598 0 .972-.57.672-.977L8.172 3.806c-.146-.2-.421-.318-.713-.305z"/><path style="fill:#ffd42b" d="M7.459 3c-.262.012-.5.126-.631.306L4.106 7.023c-.3.408.074.978.672.977H6v5.824C6 14.476 6.62 15 7.266 15h.468c.645 0 1.277-.525 1.266-1.176V8h1.222c.598 0 .972-.57.672-.977L8.172 3.306c-.146-.2-.421-.317-.713-.305z"/><path style="opacity:.2" d="M14.266 7.5c-.645 0-1.277.524-1.265 1.176V14.5h-1.223c-.598 0-.972.57-.672.977l2.722 3.717c.131.18.369.294.631.305.292.012.567-.105.713-.305l2.722-3.717c.3-.408-.074-.978-.672-.977H16V8.676c0-.652-.62-1.176-1.266-1.176z"/><path style="fill:#71d716" d="M14.266 7c-.645 0-1.277.525-1.265 1.176V14h-1.223c-.598 0-.972.57-.672.977l2.722 3.717c.131.18.369.294.631.305.292.012.567-.105.713-.305l2.722-3.717c.3-.408-.074-.978-.672-.977H16V8.176C16 7.524 15.38 7 14.734 7z"/><path style="opacity:.1;fill:#fff" d="M7.362 1.003c-.797.033-1.598.344-2.169 1.12L2.462 5.839c-.37.502-.496 1.137-.444 1.733.04-.437.176-.87.444-1.233l2.731-3.716c.571-.776 1.372-1.087 2.17-1.12.884-.037 1.784.259 2.417 1.12l2.581 3.512c.557-.381 1.208-.635 1.917-.635h.47c1.734 0 3.277 1.256 3.277 3.176v-.5c0-1.92-1.543-3.176-3.278-3.176h-.469c-.709 0-1.36.254-1.917.635l-2.58-3.512c-.635-.861-1.534-1.157-2.418-1.12zm10.663 11.185v.5c.62.178 1.19.485 1.557 1.027.225.33.362.76.4 1.21.057-.625-.093-1.258-.4-1.71-.368-.542-.938-.849-1.557-1.027z"/></svg>
